src/assets/filled/Heart.svg

<svg width="24" height="24" viewBox="0 0 24 24"  xmlns="http://www.w3.org/2000/svg">
<path d="M16.44 3.09961C14.63 3.09961 13.01 3.97961 12 5.32961C10.99 3.97961 9.37 3.09961 7.56 3.09961C4.49 3.09961 2 5.59961 2 8.68961C2 9.87961 2.19 10.9796 2.52 11.9996C4.1 16.9996 8.97 19.9896 11.38 20.8096C11.72 20.9296 12.28 20.9296 12.62 20.8096C15.03 19.9896 19.9 16.9996 21.48 11.9996C21.81 10.9796 22 9.87961 22 8.68961C22 5.59961 19.51 3.09961 16.44 3.09961Z" />
</svg>

<?xml version="1.0" encoding="UTF-8"?>
<svg width="24" height="24" viewBox="0 0 24 24" xmlns="http://www.w3.org/2000/svg">
 <path d="m16.44 3.0996c-1.81 0-3.43 0.88-4.44 2.23-1.01-1.35-2.63-2.23-4.44-2.23-3.07 0-5.56 2.5-5.56 5.59 0 1.19 0.19 2.29 0.52 3.31 1.58 5 6.45 7.99 8.86 8.81 0.34 0.12 0.9 0.12 1.24 0 2.41-0.82 7.28-3.81 8.86-8.81 0.33-1.02 0.52-2.12 0.52-3.31 0-3.09-2.49-5.59-5.56-5.59z"/>
</svg>
